src/assets/Imgs/darkMenu/resouce.svg

<svg fill="none" height="24" viewBox="0 0 24 24" width="24" xmlns="http://www.w3.org/2000/svg"><path d="m22 17v-7c0-2.20914-1.7909-4-4-4h-2.6667c-.8654 0-1.7076-.28071-2.4-.8l-1.8666-1.4c-.6924-.51929-1.53455-.8-2.40003-.8h-2.66667c-2.20914 0-4 1.79086-4 4v10c0 2.2091 1.79086 4 4 4h12c2.2091 0 4-1.7909 4-4z" stroke="#b0b0b0" stroke-linecap="round" stroke-linejoin="round" stroke-width="1.5"/></svg>

<svg width="24" height="24" viewBox="0 0 24 24" fill="none" xmlns="http://www.w3.org/2000/svg">
<g id="folder">
<path id="Vector 239" d="M22 17V10C22 7.79086 20.2091 6 18 6H15.3333C14.4679 6 13.6257 5.71929 12.9333 5.2L11.0667 3.8C10.3743 3.28071 9.53215 3 8.66667 3H6C3.79086 3 2 4.79086 2 7V17C2 19.2091 3.79086 21 6 21H18C20.2091 21 22 19.2091 22 17Z" stroke="#B0B0B0" stroke-width="1.5" stroke-linecap="round" stroke-linejoin="round"/>
</g>
</svg>
